X:1
T:Title
%%score { ( 1 2 ) | 3 }
L:1/8
Q:1/4=112
M:4/4
K:Ab
V:1 treble nm="Grand Piano"
V:2 treble 
V:3 bass 
V:1
 z4 e4- | e8 | z4 d4- | d8 | c2 B2 A3 [Ac] | [Ad]2 [Ae]2 [Af]4 | [Ae]3 [Ac] [Ae]<[Gd] Bc | %7
[M:3/4] A6 |] %8
V:2
 e2 c2 z4 | AcBA GF E2 | d2 B2 z4 | GBAG FG E2 | x8 | x8 | x8 |[M:3/4] x6 |] %8
V:3
 z8 | [A,C][A,E][A,D][A,C] [E,B,][E,A,] [E,G,]2 | z8 | %3
 [E,B,][E,D][E,C][E,B,] [E,A,][E,B,] [E,G,]2 | [A,EA]2 [A,DG]2[K:bass] [A,C]3 [_G,E] | %5
 [F,D]2 [E,C]2 [=D,_C]4 | [E,C]3 [E,E] [E,C]<[E,B,] [F,DE][E,DE] |[M:3/4] [A,CE]6 |] %8

